X:85
T:Tavern In The Town
M:4/4
L:1/8
K:C
E-F-^F| G3 GA G^F G| E2 G3/2 G/2 G3 E| G3 GA G^F G| D2 G3/2 A/2G-FE-D|\
C2 E2 G2 c3/2- c/2| dc Bc A3 A| B3 BB GA B| c6 G3/2 G/2| GB BB BG FD|\
Cc cc cG EG| GB BB BG AB| c2 A2 G3 E| G3 GA G^F G| E2 G3/2 G/2 G3 E|\
G3 GA G^F G| D2 G3/2 A/2G-FE-D| C2 E2 G2 c3/2 c/2| dc Bc A3 c| B3 BB GA B|\
c4- c||

